X:101
T:Goose and Gridiron, The
M:6/8
L:1/8
B:Thompson's Compleat Collection of 200 Favourite Country Dances, vol. 3 (London, 1773)
Z:Transcribed and edited by Flynn Titford-Mock, 2007
Z:abc's:AK/Fiddler's Companion
K:A
A3 B3 | cea ecA | fed cBA | GBA GFE | A2a A2a | A2a agf | gfe Bc^d | e3 E3 :|
|: E2e e^de | E2=d dcd | ced cBA | GBA GFE | A2a A2a | A2a agf | edc BAG | G3 [A,3A3] :|

